X:1
T:the Fox
L:1/8
M:4/4
I:linebreak $
K:G
V:1 treble 
V:1
|: (B/c/d) BG Ac B2 | (B/c/d) BG FAFD | (B/c/d) BG Ac (B/c/d) | ecAF G2 G2 :: g/f/g/a/ gd Bgdg |$ %5
 a/g/f/e/ fg aA A2 |1 g/f/g/a/ gd Bgdg | ecAF G2 G2 :|2 gafg efdc | B/c/d Ac BG G2 |] %10
